static/img/logos/cube.svg

<?xml version="1.0" encoding="UTF-8"?>
<svg width="100" height="100" viewBox="0 0 100 100" display="block" fill="none" version="1.1" xmlns="http://www.w3.org/2000/svg">
  <g stroke-width="3.0523">
    <path d="m87.034 28.751-37.025-21.482v14.865l37.025 21.387v-14.773z" fill="#c9c9c9"/>
    <path d="m87.034 43.518-11.108 6.48-25.926-15.014-14.813 8.5466-11.11-6.0039 25.929-15.396z" fill="#3d3d3d"/>
    <path d="m35.187 43.535-11.11-6.0039v12.472z" fill="#909090"/>
    <path d="m12.967 71.252 37.034-21.25 37.034 21.25-37.034 21.482z" fill="#3d3d3d"/>
    <path d="m87.034 56.501-37.034-21.747v15.247l37.034 21.25z" fill="#c9c9c9"/>
    <path d="m24.077 49.997v-12.472l25.929-15.396v-14.865l-37.04 21.482v42.5l37.034-21.25v-15.247z" fill="#c9c9c9"/>
  </g>
</svg>

<svg width="100" height="100" viewBox="0 0 100 100" display="block" fill="none" version="1.1" xmlns="http://www.w3.org/2000/svg"><g stroke-width="3.052"><path d="M87.034 28.751L50.009 7.269v14.865l37.025 21.387V28.748z" fill="#c9c9c9"/><path d="M87.034 43.518l-11.108 6.48L50 34.984l-14.813 8.547-11.11-6.004L50.006 22.13z" fill="#3d3d3d"/><path d="M35.187 43.535l-11.11-6.004v12.472z" fill="#909090"/><path d="M12.967 71.252l37.034-21.25 37.034 21.25-37.034 21.482z" fill="#3d3d3d"/><path d="M87.034 56.501L50 34.754v15.247l37.034 21.25z" fill="#c9c9c9"/><path d="M24.077 49.997V37.525l25.929-15.396V7.264l-37.04 21.482v42.5L50 49.996V34.749z" fill="#c9c9c9"/></g></svg>
